svgs/duotone/transporter-3.svg

<svg xmlns="http://www.w3.org/2000/svg" viewBox="0 0 512 512"><!-- Font Awesome Pro 6.0.0-alpha2 by @fontawesome - https://fontawesome.com License - https://fontawesome.com/license (Commercial License) --><defs><style>.fa-secondary{opacity:.4}</style></defs><path d="M93.75 140.375L64 128L51.625 98.25C50.875 96.875 49.5 96 48 96S45.125 96.875 44.375 98.25L32 128L2.25 140.375C0.875 141.125 0 142.5 0 144S0.875 146.875 2.25 147.625L32 160L44.375 189.75C45.125 191.125 46.5 192 48 192S50.875 191.125 51.625 189.75L64 160L93.75 147.625C95.125 146.875 96 145.5 96 144S95.125 141.125 93.75 140.375ZM509.75 44.375L480 32L467.625 2.25C466.875 0.875 465.5 0 464 0S461.125 0.875 460.375 2.25L448 32L418.25 44.375C416.875 45.125 416 46.5 416 48S416.875 50.875 418.25 51.625L448 64L460.375 93.75C461.125 95.125 462.5 96 464 96S466.875 95.125 467.625 93.75L480 64L509.75 51.625C511.125 50.875 512 49.5 512 48S511.125 45.125 509.75 44.375ZM400 256H112C103.156 256 96 263.156 96 272S103.156 288 112 288H400C408.844 288 416 280.844 416 272S408.844 256 400 256ZM176 352H336C344.844 352 352 344.844 352 336S344.844 320 336 320H176C167.156 320 160 327.156 160 336S167.156 352 176 352ZM176 416H336C344.844 416 352 408.844 352 400S344.844 384 336 384H176C167.156 384 160 391.156 160 400S167.156 416 176 416ZM144 224H368C376.844 224 384 216.844 384 208S376.844 192 368 192H144C135.156 192 128 199.156 128 208S135.156 224 144 224ZM176 160H336C344.844 160 352 152.844 352 144S344.844 128 336 128H176C167.156 128 160 135.156 160 144S167.156 160 176 160Z" class="fa-secondary"/><path d="M384 448H128C110.375 448 96 462.375 96 480V512H416V480C416 462.375 401.625 448 384 448ZM256 96C282.5 96 304 74.5 304 48S282.5 0 256 0S208 21.5 208 48S229.5 96 256 96Z" class="fa-primary"/></svg>

<svg xmlns="http://www.w3.org/2000/svg" viewBox="0 0 512 512"><!--! Font Awesome Pro 6.0.0-alpha3 by @fontawesome - https://fontawesome.com License - https://fontawesome.com/license (Commercial License) --><defs><style>.fa-secondary{opacity:.4}</style></defs><path class="fa-primary" d="M384 448H128c-17.62 0-32 14.38-32 32v32h320v-32C416 462.4 401.6 448 384 448zM256 96c26.5 0 48-21.5 48-48S282.5 0 256 0S208 21.5 208 48S229.5 96 256 96z"/><path class="fa-secondary" d="M93.75 140.4L64 128L51.63 98.25C50.88 96.88 49.5 96 48 96S45.13 96.88 44.38 98.25L32 128L2.25 140.4C.875 141.1 0 142.5 0 144s.875 2.875 2.25 3.625L32 160l12.38 29.75C45.13 191.1 46.5 192 48 192s2.875-.875 3.625-2.25L64 160l29.75-12.38C95.13 146.9 96 145.5 96 144S95.13 141.1 93.75 140.4zM509.8 44.38L480 32l-12.38-29.75C466.9 .875 465.5 0 464 0s-2.875 .875-3.625 2.25L448 32l-29.75 12.38C416.9 45.13 416 46.5 416 48s.875 2.875 2.25 3.625L448 64l12.38 29.75C461.1 95.13 462.5 96 464 96s2.875-.875 3.625-2.25L480 64l29.75-12.38C511.1 50.88 512 49.5 512 48S511.1 45.13 509.8 44.38zM400 256h-288C103.2 256 96 263.2 96 272S103.2 288 112 288h288C408.8 288 416 280.8 416 272S408.8 256 400 256zM176 352h160c8.844 0 16-7.156 16-16S344.8 320 336 320h-160C167.2 320 160 327.2 160 336S167.2 352 176 352zM176 416h160c8.844 0 16-7.156 16-16S344.8 384 336 384h-160C167.2 384 160 391.2 160 400S167.2 416 176 416zM144 224h224C376.8 224 384 216.8 384 208S376.8 192 368 192h-224C135.2 192 128 199.2 128 208S135.2 224 144 224zM176 160h160C344.8 160 352 152.8 352 144S344.8 128 336 128h-160C167.2 128 160 135.2 160 144S167.2 160 176 160z"/></svg>
